public/cards/5-D.svg

<?xml version="1.0" encoding="UTF-8"?>
<svg width="361px" height="540px" viewBox="0 0 361 540" version="1.1" xmlns="http://www.w3.org/2000/svg" xmlns:xlink="http://www.w3.org/1999/xlink">
    <!-- Generator: Sketch 55.2 (78181) - https://sketchapp.com -->
    <title>5-D</title>
    <desc>Created with Sketch.</desc>
    <g id="Page-1" stroke="none" stroke-width="1" fill="none" fill-rule="evenodd">
        <g id="English_pattern_playing_cards_deck" transform="translate(-1560.000000, -1141.000000)" fill-rule="nonzero">
            <g id="5-D" transform="translate(1560.364000, 1140.637820)">
                <rect id="rect6472-57" stroke="#000000" stroke-width="0.99999976" fill="#FFFFFF" x="0.5" y="0.86218" width="359" height="539" rx="29.944447"></rect>
                <path d="M20,30.36208 L20,45.36208 L20,50.36208 L30,50.36208 C32.77,50.36208 35.00001,52.59207 35.00001,55.36212 L35.00001,70.36208 C35.00001,73.13209 32.77,75.36208 30,75.36208 C27.23,75.36208 25,73.13209 25,70.36208 L25,65.36208 L20,65.36208 L20,70.36208 C20,75.90208 24.46,80.36208 30,80.36208 C35.54001,80.36208 40,75.90208 40,70.36208 L40,55.36212 C40,49.82207 35.54001,45.36208 30,45.36208 L25,45.36208 L25,35.36208 L30,35.36208 L40,35.36208 L40,30.36208 L30,30.36208 L25,30.36208 L20,30.36208 Z" id="rect3163-6-0-0-2-66" fill="#FF5555"></path>
                <path d="M340,510.3622 L340,495.3622 L340,490.3622 L330,490.3622 C327.23,490.3622 325,488.1322 325,485.36214 L325,470.36212 C325,467.59212 327.23,465.36212 330,465.36212 C332.77,465.36212 335,467.59212 335,470.36212 L335,475.36212 L340,475.36212 L340,470.36212 C340,464.82212 335.54,460.36212 330,460.36212 C324.45999,460.36212 320,464.82212 320,470.36212 L320,485.36214 C320,490.9022 324.45999,495.3622 330,495.3622 L335,495.3622 L335,505.3622 L330,505.3622 L320,505.3622 L320,510.3622 L330,510.3622 L335,510.3622 L340,510.3622 Z" id="rect3163-6-0-0-2-4-5" fill="#FF5555"></path>
                <path d="M30,90.36218 C30,90.36218 33,97.86218 36.5,102.86218 C40,107.86218 45,112.86218 45,112.86218 C45,112.86218 40,117.86218 36.5,122.86218 C33,127.86218 30,135.36218 30,135.36218 C30,135.36218 27,127.86218 23.5,122.86218 C20,117.86218 15,112.86218 15,112.86218 C15,112.86218 20,107.86218 23.5,102.86218 C27,97.86218 30,90.36218 30,90.36218" id="path3204-24-1-82" fill="#FF5555"></path>
                <path d="M330,405.36218 C330,405.36218 333,412.86218 336.5,417.86218 C340,422.86218 345,427.86218 345,427.86218 C345,427.86218 340,432.86218 336.5,437.86218 C333,442.86218 330,450.36218 330,450.36218 C330,450.36218 327,442.86218 323.5,437.86218 C320,432.86218 315,427.86218 315,427.86218 C315,427.86218 320,422.86218 323.5,417.86218 C327,412.86218 330,405.36218 330,405.36218" id="path3204-24-1-1-5" fill="#FF5555"></path>
                <path d="M90,45.36218 C90,45.36218 96,60.36218 103,70.36218 C110,80.36218 120,90.36218 120,90.36218 C120,90.36218 110,100.36218 103,110.36218 C96,120.36218 90,135.36218 90,135.36218 C90,135.36218 84,120.36218 77,110.36218 C70,100.36218 60,90.36218 60,90.36218 C60,90.36218 70,80.36218 77,70.36218 C84,60.36218 90,45.36218 90,45.36218" id="path3204-24-7-4" fill="#FF5555"></path>
                <path d="M270,45.36218 C270,45.36218 276,60.36218 283,70.36218 C290,80.36218 300,90.36218 300,90.36218 C300,90.36218 290,100.36218 283,110.36218 C276,120.36218 270,135.36218 270,135.36218 C270,135.36218 264,120.36218 257,110.36218 C250,100.36218 240,90.36218 240,90.36218 C240,90.36218 250,80.36218 257,70.36218 C264,60.36218 270,45.36218 270,45.36218" id="path3204-24-4-4" fill="#FF5555"></path>
                <path d="M180,225.36218 C180,225.36218 186,240.36218 193,250.36218 C200,260.36218 210,270.36218 210,270.36218 C210,270.36218 200,280.36218 193,290.36218 C186,300.36218 180,315.36218 180,315.36218 C180,315.36218 174,300.36218 167,290.36218 C160,280.36218 150,270.36218 150,270.36218 C150,270.36218 160,260.36218 167,250.36218 C174,240.36218 180,225.36218 180,225.36218" id="path3204-24-16" fill="#FF5555"></path>
                <path d="M90,405.36218 C90,405.36218 96,420.36218 103,430.36218 C110,440.36218 120,450.36218 120,450.36218 C120,450.36218 110,460.36218 103,470.36218 C96,480.36218 90,495.3622 90,495.3622 C90,495.3622 84,480.36218 77,470.36218 C70,460.36218 60,450.36218 60,450.36218 C60,450.36218 70,440.36218 77,430.36218 C84,420.36218 90,405.36218 90,405.36218" id="path3204-24-0-1" fill="#FF5555"></path>
                <path d="M270,405.36218 C270,405.36218 276,420.36218 283,430.36218 C290,440.36218 300,450.36218 300,450.36218 C300,450.36218 290,460.36218 283,470.36218 C276,480.36218 270,495.3622 270,495.3622 C270,495.3622 264,480.36218 257,470.36218 C250,460.36218 240,450.36218 240,450.36218 C240,450.36218 250,440.36218 257,430.36218 C264,420.36218 270,405.36218 270,405.36218" id="path3204-24-9-6" fill="#FF5555"></path>
            </g>
        </g>
    </g>
</svg>

<svg width="361" height="540" xmlns="http://www.w3.org/2000/svg"><g transform="translate(.364 -.362)" fill-rule="nonzero" fill="none"><rect stroke="#000" fill="#FFF" x=".5" y=".862" width="359" height="539" rx="29.944"/><path d="M20 30.362v20h10c2.77 0 5 2.23 5 5v15c0 2.77-2.23 5-5 5s-5-2.23-5-5v-5h-5v5c0 5.54 4.46 10 10 10s10-4.46 10-10v-15c0-5.54-4.46-10-10-10h-5v-10h15v-5H20zM340 510.362v-20h-10c-2.77 0-5-2.23-5-5v-15c0-2.77 2.23-5 5-5s5 2.23 5 5v5h5v-5c0-5.54-4.46-10-10-10s-10 4.46-10 10v15c0 5.54 4.46 10 10 10h5v10h-15v5h20zM30 90.362s3 7.5 6.5 12.5 8.5 10 8.5 10-5 5-8.5 10-6.5 12.5-6.5 12.5-3-7.5-6.5-12.5-8.5-10-8.5-10 5-5 8.5-10 6.5-12.5 6.5-12.5M330 405.362s3 7.5 6.5 12.5 8.5 10 8.5 10-5 5-8.5 10-6.5 12.5-6.5 12.5-3-7.5-6.5-12.5-8.5-10-8.5-10 5-5 8.5-10 6.5-12.5 6.5-12.5M90 45.362s6 15 13 25 17 20 17 20-10 10-17 20-13 25-13 25-6-15-13-25-17-20-17-20 10-10 17-20 13-25 13-25M270 45.362s6 15 13 25 17 20 17 20-10 10-17 20-13 25-13 25-6-15-13-25-17-20-17-20 10-10 17-20 13-25 13-25M180 225.362s6 15 13 25 17 20 17 20-10 10-17 20-13 25-13 25-6-15-13-25-17-20-17-20 10-10 17-20 13-25 13-25M90 405.362s6 15 13 25 17 20 17 20-10 10-17 20-13 25-13 25-6-15-13-25-17-20-17-20 10-10 17-20 13-25 13-25M270 405.362s6 15 13 25 17 20 17 20-10 10-17 20-13 25-13 25-6-15-13-25-17-20-17-20 10-10 17-20 13-25 13-25" fill="#F55"/></g></svg>
